img/payment_1_selected.svg

<svg width="103" height="36" viewBox="0 0 103 36" fill="none" xmlns="http://www.w3.org/2000/svg">
<path d="M0 6C0 2.68629 2.68629 0 6 0H97C100.314 0 103 2.68629 103 6V30C103 33.3137 100.314 36 97 36H6C2.68629 36 0 33.3137 0 30V6Z" fill="white"/>
<path d="M36.1413 11.632V20.788H37.8773V11.632H36.1413ZM27.4473 17.708L28.3293 19.094C29.7853 18.576 30.7933 17.54 31.3393 16.252C31.8853 17.456 32.8513 18.394 34.2653 18.884L35.1473 17.498C33.1173 16.826 32.2073 15.202 32.2073 13.55V12.318H30.4433V13.55C30.4433 15.244 29.5333 16.994 27.4473 17.708ZM29.5613 23.952H38.1993V22.552H31.2973V19.92H29.5613V23.952ZM39.6837 17.61V18.982H51.0517V17.61H48.4337V16.084C49.3577 15.678 49.8897 15.034 49.8897 14.208C49.8897 12.724 48.1257 11.814 45.3677 11.814C42.6097 11.814 40.8457 12.724 40.8457 14.208C40.8457 15.02 41.3637 15.664 42.2737 16.084V17.61H39.6837ZM40.9997 21.908C40.9997 23.364 42.6237 24.19 45.3397 24.19C48.0557 24.19 49.6937 23.364 49.6937 21.908C49.6937 20.466 48.0557 19.64 45.3397 19.64C42.6237 19.64 40.9997 20.466 40.9997 21.908ZM42.6377 14.208C42.6377 13.508 43.6317 13.144 45.3677 13.144C47.1177 13.144 48.0977 13.508 48.0977 14.208C48.0977 14.936 47.1177 15.3 45.3677 15.3C43.6317 15.3 42.6377 14.936 42.6377 14.208ZM42.7497 21.908C42.7497 21.264 43.6457 20.942 45.3397 20.942C47.0477 20.942 47.9297 21.264 47.9297 21.908C47.9297 22.552 47.0477 22.86 45.3397 22.86C43.6457 22.86 42.7497 22.552 42.7497 21.908ZM44.0097 17.61V16.532C44.4297 16.588 44.8777 16.616 45.3677 16.616C45.8437 16.616 46.2917 16.588 46.6977 16.532V17.61H44.0097ZM58.416 12.836H52.662V14.222H56.694C56.652 14.824 56.568 15.398 56.428 15.93L52.004 16.21L52.214 17.694L55.91 17.344C55.21 18.744 53.978 19.92 51.892 20.956L52.816 22.286C57.478 19.934 58.416 16.7 58.416 12.836ZM59.998 24.176H61.748V17.876H63.512V16.448H61.748V11.604H59.998V24.176ZM65.5143 12.668V18.828H74.3063V17.442H67.2363V14.068H74.2083V12.668H65.5143ZM64.1703 22.65H75.5383V21.236H64.1703V22.65Z" fill="#E7342C"/>
<path d="M6 1H97V-1H6V1ZM102 6V30H104V6H102ZM97 35H6V37H97V35ZM1 30V6H-1V30H1ZM6 35C3.23858 35 1 32.7614 1 30H-1C-1 33.866 2.13401 37 6 37V35ZM102 30C102 32.7614 99.7614 35 97 35V37C100.866 37 104 33.866 104 30H102ZM97 1C99.7614 1 102 3.23858 102 6H104C104 2.13401 100.866 -1 97 -1V1ZM6 -1C2.13401 -1 -1 2.13401 -1 6H1C1 3.23858 3.23858 1 6 1V-1Z" fill="#E7342C"/>
</svg>

<?xml version="1.0" encoding="utf-8"?>
<!-- Generator: Adobe Illustrator 26.3.1, SVG Export Plug-In . SVG Version: 6.00 Build 0)  -->
<svg version="1.1" id="레이어_1" xmlns="http://www.w3.org/2000/svg" xmlns:xlink="http://www.w3.org/1999/xlink" x="0px"
	 y="0px" viewBox="0 0 103 36" style="enable-background:new 0 0 103 36;" xml:space="preserve">
<style type="text/css">
	.st0{fill:#E7342C;}
</style>
<path class="st0" d="M36.14,11.63v9.16h1.74v-9.16H36.14z M27.45,17.71l0.88,1.39c1.46-0.52,2.46-1.55,3.01-2.84
	c0.55,1.2,1.51,2.14,2.93,2.63l0.88-1.39c-2.03-0.67-2.94-2.3-2.94-3.95v-1.23h-1.76v1.23C30.44,15.24,29.53,16.99,27.45,17.71z
	 M29.56,23.95h8.64v-1.4h-6.9v-2.63h-1.74V23.95z M39.68,17.61v1.37h11.37v-1.37h-2.62v-1.53c0.92-0.41,1.46-1.05,1.46-1.88
	c0-1.48-1.76-2.39-4.52-2.39c-2.76,0-4.52,0.91-4.52,2.39c0,0.81,0.52,1.46,1.43,1.88v1.53H39.68z M41,21.91
	c0,1.46,1.62,2.28,4.34,2.28s4.35-0.83,4.35-2.28c0-1.44-1.64-2.27-4.35-2.27S41,20.47,41,21.91z M42.64,14.21
	c0-0.7,0.99-1.06,2.73-1.06c1.75,0,2.73,0.36,2.73,1.06c0,0.73-0.98,1.09-2.73,1.09C43.63,15.3,42.64,14.94,42.64,14.21z
	 M42.75,21.91c0-0.64,0.9-0.97,2.59-0.97c1.71,0,2.59,0.32,2.59,0.97c0,0.64-0.88,0.95-2.59,0.95
	C43.65,22.86,42.75,22.55,42.75,21.91z M44.01,17.61v-1.08c0.42,0.06,0.87,0.08,1.36,0.08c0.48,0,0.92-0.03,1.33-0.08v1.08H44.01z
	 M58.42,12.84h-5.75v1.39h4.03c-0.04,0.6-0.13,1.18-0.27,1.71L52,16.21l0.21,1.48l3.7-0.35c-0.7,1.4-1.93,2.58-4.02,3.61l0.92,1.33
	C57.48,19.93,58.42,16.7,58.42,12.84z M60,24.18h1.75v-6.3h1.76v-1.43h-1.76V11.6H60V24.18z M65.51,12.67v6.16h8.79v-1.39h-7.07
	v-3.37h6.97v-1.4H65.51z M64.17,22.65h11.37v-1.41H64.17V22.65z"/>
</svg>
